packages/kaspersky-hexa-ui-icons/src/iconsSVGs/24/ShieldWarningSolid.svg

<svg width="24" height="24" viewBox="0 0 24 24" fill="none" xmlns="http://www.w3.org/2000/svg">
<path fill-rule="evenodd" clip-rule="evenodd" d="M12.9425 2.3516C12.3648 2.05174 11.6774 2.05174 11.0997 2.3516L4.53929 5.75693C4.20795 5.92892 4 6.27116 4 6.64448V11.8567C4 12.8253 4.10685 13.8696 4.49525 14.8687C5.61429 17.7471 7.40804 19.5202 8.93197 20.5711C9.69148 21.0949 10.3833 21.4391 10.8919 21.6543C11.1465 21.7621 11.3562 21.8379 11.507 21.8881C11.6737 21.9435 11.8453 22 12.0211 22C12.2103 22 12.3901 21.9346 12.5652 21.8697C12.7129 21.815 12.9189 21.7331 13.1694 21.6189C13.6698 21.3908 14.3517 21.0322 15.1016 20.5022C16.6035 19.4407 18.3866 17.6846 19.5121 14.9175C19.9295 13.8914 20.0422 12.812 20.0422 11.8148V6.64448C20.0422 6.27116 19.8342 5.92892 19.5029 5.75693L12.9425 2.3516ZM12 7.00002C12.5523 7.00002 13 7.44773 13 8.00002V12C13 12.5523 12.5523 13 12 13C11.4477 13 11 12.5523 11 12V8.00002C11 7.44773 11.4477 7.00002 12 7.00002ZM12 16C12.5523 16 13 15.5523 13 15C13 14.4477 12.5523 14 12 14C11.4477 14 11 14.4477 11 15C11 15.5523 11.4477 16 12 16Z" fill="black"/>
</svg>

<svg xmlns="http://www.w3.org/2000/svg" width="24" height="24" fill="none" viewBox="0 0 24 24"><path fill="#000" fill-rule="evenodd" d="M12.9425 2.3516a2 2 0 0 0-1.8428 0L4.5393 5.7569A1 1 0 0 0 4 6.6445v5.2122c0 .9686.1068 2.0129.4953 3.012 1.119 2.8784 2.9127 4.6515 4.4367 5.7024.7595.5238 1.4513.868 1.9599 1.0832.2546.1078.4643.1836.6151.2338.1667.0554.3383.1119.5141.1119.1892 0 .369-.0654.5441-.1303a9 9 0 0 0 .6042-.2508c.5004-.2281 1.1823-.5867 1.9322-1.1167 1.5019-1.0615 3.285-2.8176 4.4105-5.5847.4174-1.0261.5301-2.1055.5301-3.1027V6.6445a1 1 0 0 0-.5393-.8876zM12 7c.5523 0 1 .4477 1 1v4c0 .5523-.4477 1-1 1s-1-.4477-1-1V8c0-.5523.4477-1 1-1m0 9c.5523 0 1-.4477 1-1s-.4477-1-1-1-1 .4477-1 1 .4477 1 1 1"/></svg>
